X:1
T:More Like the Master
T:More Like the Master
T:Charles Hutchinson Gabriel
T:Charles Hutchinson Gabriel, 1906
T:Public Domain Courtesy of the Cyber Hymnal™
T:Public Domain Courtesy of the Cyber Hymnal™
C:Charles Hutchinson Gabriel
Z:Public Domain
Z:Courtesy of the Cyber Hymnal™
%%score ( 1 2 ) ( 3 4 )
L:1/8
Q:1/4=135
M:6/8
K:Db
V:1 treble 
V:2 treble 
V:3 bass 
V:4 bass 
V:1
 [FA]3 [GB]2 [FA] | [FA]3 [DF]3 | [FA]2 [EG] [EG]2 [=DF] | [EG]3- [EG]3 | [GB]3 [Gc]2 [GB] | %5
w: 1.~More like the|Mas- ter|I would ev- er|be, *|More of His|
w: 2.~More like the|Mas- ter|is my dai- ly|prayer; *|More strength to|
w: 3.~More like the|Mas- ter|I would live and|grow; *|More of His|
 [GB]3 [CE]3 | [DA]2 [DB] [GA]2 [GB] | [FA]3- [FA]3 | [Fd]3 [Ec]2 [Ge] | [Fd]3 [DF]2 [FA] | %10
w: meek- ness,|more hu- mil- i-|ty; *|More zeal to|la- bor, more|
w: car- ry|cross- es I must|bear; *|More ear- nest|ef- fort to|
w: love to|o- thers I would|show; *|More self de-|ni- al, like|
 [Ac]2 [GB] [GB]2 =A | [GB]3- [GB]3 | [=GB]3 [Gc]2 [Gd] | [Ae]3 [Ec]2 [EA] | %14
w: cour- age to be|true, *|More con- se-|cra- tion for|
w: bring His king- dom|in; *|More of His|Spir- it, the|
w: His in Ga- li-|lee, *|More like the|Mas- ter I|
 [Ec]2 [Ed] [Ec]2 [DB] | A3- A3 ||"^Refrain" d3 [Fc]2 [FB] | F3- [DF]2 A | B2 A B2 d | c3- c3 | %20
w: work He bids me|do *|||||
w: wan- der- er to|win. *|Take Thou my|heart, I would|be Thine a- lone;|Take *|
w: long to ev- er|be. *|||||
 d3 [Gc]2 [GB] | G3- [EG]2 [FA] | B2 c B2 c | F3- F3 | d3 [Fd]2 [FB] | F3- [DF]2 [DA] | B2 F B2 A | %27
w: |||||||
w: Thou my heart,|and make it|* all Thine own.|Purge *|me from sin,|O Lord, I|* now im- plore,|
w: |||||||
 G3- [EG]3 | =G3 [EA]2 [EB] | c3 [Dd]2 [DG] | [DF]2 [DF] [CE]2 [CE] | D6 |] %32
w: |||||
w: Wash me|* and keep|me Thine for-|* ev- er- more.||
w: |||||
V:2
 x6 | x6 | x6 | x6 | x6 | x6 | x6 | x6 | x6 | x6 | x5 G | x6 | x6 | x6 | x6 | (CD=DEFG) || %16
 (F2 F) x3 | (D2 D F) x2 | F3 F3 | (G2 G G3) | (G2 G) x3 | E2 E x3 | G3 G3 | (D2 D D3) | %24
 (F2 F) x3 | D2 D x3 | =D3 F3 | E2 E x3 | (E2 E) x3 | E2 E x3 | x6 | D6 |] %32
V:3
 [D,D]3 [D,D]2 [D,D] | [D,D]3 [D,A,]3 | [A,,D]2 [A,,A,] [A,,A,]2 [A,,A,] | [A,,A,]3- [A,,A,]3 | %4
 [A,,C]3 [A,,C]2 [A,,C] | [A,,C]3 [G,A,]3 | [F,A,]2 [F,A,] [E,C]2 [A,,C] | [D,D]3- [D,D]3 | %8
 [D,A,]3 [D,A,]2 [D,A,] | [D,A,]3 [D,A,]2 [D,D] | [G,D]2 [G,D] [G,D]2 [G,C] | [G,D]3- [G,D]3 | %12
 ([E,D]2 [D,E]) [C,E]2 [B,,E] | [A,,C]3 [A,,A,]2 [C,A,] | [E,A,]2 [E,B,] [E,A,]2 [E,=G,] | %15
 (A,B,=B,CDE) || [D,A,]2 [D,A,] [D,A,]2 [D,A,] | ([D,A,]2 [D,A,] [D,A,]2) [D,D] | [D,D]3 [D,D]3 | %19
 ([E,A,]2 [E,A,] [E,A,]3) | ([A,E]2 [A,E]) [A,E]2 [A,C] | ([A,C]2 [A,C] [A,C]2) A, | %22
 [A,,C]3 [A,,C]3 | ([D,D]2 [D,A,] [D,A,]3) | ([D,A,]2 [D,A,]) [D,A,]2 [D,A,] | %25
 ([D,A,]2 [D,A,] [D,A,]2) [D,F,] | F,2 B, [=D,B,]3 | ([E,B,]2 [E,B,]) [E,B,]3 | %28
 ([E,B,]2 [D,B,]) [C,A,]2 [E,=G,] | (A,2 [G,A,] [F,A,]2) [G,B,] | A,2 A, [A,,G,]2 [A,,G,] | %31
 [D,F,]6 |] %32
V:4
 x6 | x6 | x6 | x6 | x6 | x6 | x6 | x6 | x6 | x6 | x6 | x6 | x6 | x6 | x6 | A,,3- A,,3 || x6 | x6 | %18
 x6 | x6 | x6 | x5 A, | x6 | x6 | x6 | x6 | B,,3 x3 | x6 | x6 | x6 | x6 | x6 |] %32

